vendor/craftcms/cms/src/icons/solid/cassette-betamax.svg

<svg xmlns="http://www.w3.org/2000/svg" viewBox="0 0 576 512"><!--! Font Awesome Pro 6.7.2 by @fontawesome - https://fontawesome.com License - https://fontawesome.com/license (Commercial License) Copyright 2024 Fonticons, Inc. --><path d="M64 32C28.7 32 0 60.7 0 96l0 32 576 0 0-32c0-35.3-28.7-64-64-64L64 32zM576 160L0 160 0 416c0 35.3 28.7 64 64 64l448 0c35.3 0 64-28.7 64-64l0-256zM192 320a32 32 0 1 0 -64 0 32 32 0 1 0 64 0zM64 320a96 96 0 1 1 192 0A96 96 0 1 1 64 320zm256-64c0-17.7 14.3-32 32-32l128 0c17.7 0 32 14.3 32 32l0 128c0 17.7-14.3 32-32 32l-128 0c-17.7 0-32-14.3-32-32l0-128z"/></svg>

<svg xmlns="http://www.w3.org/2000/svg" viewBox="0 0 576 512"><!--! Font Awesome Pro 6.5.1 by @fontawesome - https://fontawesome.com License - https://fontawesome.com/license (Commercial License) Copyright 2023 Fonticons, Inc. --><path d="M64 32C28.7 32 0 60.7 0 96v32H576V96c0-35.3-28.7-64-64-64H64zM576 160H0V416c0 35.3 28.7 64 64 64H512c35.3 0 64-28.7 64-64V160zM192 320a32 32 0 1 0 -64 0 32 32 0 1 0 64 0zM64 320a96 96 0 1 1 192 0A96 96 0 1 1 64 320zm256-64c0-17.7 14.3-32 32-32H480c17.7 0 32 14.3 32 32V384c0 17.7-14.3 32-32 32H352c-17.7 0-32-14.3-32-32V256z"/></svg>
